packages/icon/src/svg/arrow-up.icon.svg

<svg width="24" height="24" viewBox="0 0 24 24" fill="none" xmlns="http://www.w3.org/2000/svg">
<path fill-rule="evenodd" clip-rule="evenodd" d="M18.0093 11.1364C17.8141 11.3317 17.4975 11.3317 17.3022 11.1364L13 6.83419V20.5C13 20.7761 12.7761 21 12.5 21H11.5C11.2238 21 11 20.7761 11 20.5V6.83205L6.69561 11.1364C6.50035 11.3317 6.18376 11.3317 5.9885 11.1364L5.2814 10.4293C5.08613 10.2341 5.08613 9.91747 5.2814 9.72221L11.9989 3.0047L18.7164 9.72221C18.9117 9.91748 18.9117 10.2341 18.7164 10.4293L18.0093 11.1364Z" fill="white"/>
</svg>

<svg aria-label="arrow up icon" viewBox="0 0 24 24"><path fill-rule="evenodd" clip-rule="evenodd" d="M18.01 11.136a.5.5 0 01-.708 0L13 6.834V20.5a.5.5 0 01-.5.5h-1a.5.5 0 01-.5-.5V6.832l-4.304 4.304a.5.5 0 01-.707 0l-.708-.707a.5.5 0 010-.707L12 3.005l6.717 6.717a.5.5 0 010 .707l-.707.707z"/></svg>
